kirby/_inc/system.svg

<svg xmlns="http://www.w3.org/2000/svg"><path d="m365.088.013c-9.76.119-19.422 1.137-28.353 5.448-9.825 5.039-13.257 16.83-13.406 27.135-16.229-10.464-34.82-18.956-54.52-18.389-17.254 1.577-34.442 3.704-51.688 5.377-9.046.515-17.955 4.908-23.621 12.008-4.439 5.523-4.818 12.835-6.381 19.464-7.265-3.386-14.736-7.149-22.94-7.241-7.006-.575-14.404 1.212-19.607 6.129-7.245 6.084-8.87 16.41-7.85 25.343 1.724 18.392 10.352 35.076 14.839 52.799 5.996 22.048 12.939 43.861 18.317 66.061-17.52-18.771-34.586-37.983-52.047-56.813-1.023-1.408-2.91-2.864-2.258-4.839 3.173-14.433 6.67-28.804 9.893-43.229 3.195-12.982 6.018-26.521 3.728-39.895-.665-5.305-2.487-10.736-6.559-14.41-9.108-9.101-23.099-11.229-35.343-8.925-8.322 2.3-15.31 9.168-17.743 17.456-2.31 9.253-2.571 19.008-5.771 28.031-3.18-6.584-5.42-13.68-9.499-19.786-5.851-6.719-14.597-10.973-23.514-11.291-8.042.02-16.206 2.9-22.26 8.244-7.339 7.256-10.363 18.739-7.348 28.64 15.657 56.634 31.422 113.234 46.957 169.903 3.22 8.689 8.929 17.923 18.531 20.324 9.462 2.277 19.848 1.179 28.569-3.19 9.212-4.676 13.427-15.903 11.792-25.772-1.689-11.717-6.268-22.79-8.782-34.339 7.733 7.042 14.634 14.957 22.009 22.367 6.801 7.011 12.484 15.411 21.077 20.431 9.972 5.995 23.058 4.524 32.726-1.362 7.385-4.339 11.37-12.354 12.546-20.611 10.493 7.83 25.848 8.504 36.74 1.112 5.416-3.335 8.117-9.389 9.786-15.27 5.82 2.158 10.53 7.232 17.026 7.42 10.464.689 21.196-4.018 28.353-11.542 7.495-11.438 2.773-25.789 3.62-38.533 6.617 8.609 9.855 19.181 16.059 28.03 6.924 9.317 17.403 17.074 29.357 17.564 11.952.852 24.307-6.342 28.532-17.743 7.741 6.121 17.475 9.254 27.314 9.176 12.492.217 24.982-.778 37.457-1.326 13.757-.384 27.519-4.604 38.892-12.402 20.871-15.156 28.305-45.017 19.499-68.822-5.114-9.528-12.338-17.742-19.141-26.095 6.441-6.046 10.11-14.086 14.732-21.435 5.09 16.59 8.339 33.665 13.37 50.254-1.631 22.247-7.485 44.232-6.022 66.671.831 6.997 5.027 13.455 11.292 16.775 8.769 5.634 20.045 6.151 29.786 3.011 8.468-2.952 13.852-10.928 16.776-19.033 7.397-19.412 4.747-40.887 11.076-60.506 6.721-14.293 16.237-27.113 23.299-41.257 7.55-13.855 15.72-27.384 23.299-41.221 5.381-10.011.727-22.517-7.205-29.716-5.569-6.374-14.094-8.969-22.26-9.749-10.774-.69-21.544 5.21-27.098 14.409-3.759 6.297-6.363 13.319-11.004 19.07-2.302-11.52-4.65-23.687-11.829-33.3-8.751-9.379-23.451-11.103-35.343-7.85-9.572 2.467-14.235 11.949-18.89 19.75-6.39-5.44-12.824-11.046-20.647-14.338-17.406-7.832-36.965-7.202-55.631-7.921-7.444.113-15.097-.344-22.689-.251zm44.125 51.329c3.821 2.233 7.024 6.193 6.846 10.825.021 4.389-3.154 7.822-6.273 10.503-.437-7.103-.959-14.209-.573-21.328zm-74.593 3.083c4.079 1.791 8.766 3.104 11.793 6.56.334 32.204.41 64.465-.072 96.673-8.54-12.137-15.244-25.529-23.084-38.139 9.063-12.936 14.914-28.444 14.661-44.376-.144-7.041-1.966-13.846-3.298-20.718zm-134.525 18.245c4.836 1.784 9.867 3.074 15.019 3.477 1.034 21.257 2.354 42.532 2.903 63.803-6.238-22.345-11.89-44.871-17.922-67.28zm75.811 1.971c3.31 3.325 2.953 9.003.323 12.618-.576-4.187-.668-8.408-.323-12.618zm133.307 42.763c6.482 3.607 12.188 10.283 11.936 18.066-.591 7.701-5.925 13.864-11.506 18.711.112-12.264-.955-24.518-.43-36.777z" fill="#141414"/><path d="m158.909 49.99c7.901-2.667 17.207.075 22.37 6.617 4.432 5.652 7.092 12.461 9.103 19.295 9.502 35.678 19.887 71.114 29.803 106.679 2.595 8.857 5.568 18.656 1.8 27.636-3.839 10.205-16.271 14.235-26.276 12.308-9.199-1.503-16.635-9.176-19.077-17.997-11.116-40.05-21.893-80.194-33.076-120.227-1.915-5.972-2.577-12.38-1.509-18.579 2.176-7.79 8.723-14.426 16.862-15.732zm-71.079-17.998c9.365-2.164 20.05-.519 27.36 6.073 2.564 2.735 4.197 6.42 4.09 10.208.093 6.098.268 12.269-.894 18.288-5.22 22.344-8.647 45.069-13.709 67.443 21.721 23.867 44.096 47.165 65.707 71.125 8.515 10.584 4.139 27.387-7.094 34.141-8.716 4.971-20.491 3.235-27.704-3.622-4.101-4.034-7.565-8.667-11.735-12.636-14.13-13.917-27.316-28.748-41.262-42.838 4.119 13.553 7.219 27.395 11.489 40.907 2.538 8.154 5.279 16.82 3.365 25.407-7.512 11.215-24.414 16.06-36.323 9.142-6.326-3.767-9.079-10.998-10.603-17.835-13.72-51.016-27.224-102.087-40.899-153.114-2.22-8.976-4.806-19.17-.033-27.787 3.993-6.766 11.652-11.964 19.746-11.264 7.421-.483 13.637 4.755 17.775 10.382 3.963 6.435 5.323 14.007 7.642 21.106 2.889 8.999 4.746 18.277 7.033 27.432.344.053 1.03.156 1.373.208 3.299-19.058 7.092-38.04 10.571-57.07 1.254-7.373 7.397-13.032 14.105-15.696zm186.893-13.304c-.556.011-1.126.04-1.684.072-15.759 1.623-31.548 2.453-47.315 3.871-8.221-.164-16.276 2.261-23.622 5.807-5.87 2.72-10.049 8.859-10.215 15.341-.227 6.679-.626 14.203 4.193 19.535 5.37 7.099 14.834 9.015 23.264 8.245-.54 7.929 1.451 15.737 1.218 23.657-.232 12.379 1.894 24.646 1.577 37.028 1.654 20.63 1.623 41.384 3.657 61.975 3.418 19.072 33.283 23.43 43.085 7.241 4.872-8.805 2.492-19.202 2.473-28.748.171-12.581-2.148-24.998-2.33-37.565 5.241 6.567 8.88 14.196 12.94 21.507 5.758 10.821 12.319 21.175 18.245 31.902 3.57 6.186 7.84 12.458 14.374 15.807 11.282 7.707 28.258-.073 31.651-12.832 2.599-10.144-1.051-20.82-6.847-29.178-6.759-9.317-12.082-19.554-18.137-29.321-3.142-5.296-6.71-10.359-9.033-16.094 14.907-12.501 15.281-33.766 14.696-51.652-1.408-8.401-4.129-16.701-8.208-24.195-10.062-13.876-26.737-22.762-43.982-22.403zm-9.785 43.766c6.992.437 14.167 4.694 15.951 11.829 2.591 5.944.051 12.957-4.23 17.42-2.857 3.203-7.169 4.168-10.968 5.771-1.216-11.633-.075-23.356-.753-35.02zm92.121-56.993c-10.347.128-21.817 3.692-26.74 13.478-3.583 9.45-1.231 20.765 4.588 28.855 3.673 5.421 10.161 7.554 16.381 8.28.463 2.513.996 5.032 1.075 7.599-.099 39.965.442 79.962.43 119.9 1.894 9.334 12.51 12.458 20.826 12.725 21.224.449 42.915 2.208 63.696-3.154 24.707-7.687 39.096-35.742 34.662-60.578-1.677-15.938-12.15-29.814-26.024-37.421 9.102-9.598 17.566-20.842 19.607-34.268 2.915-20.335-9.364-41.217-27.958-49.573-11.951-5.863-25.546-4.144-38.39-4.588-13.31-1.579-26.706-.828-40.074-1.219-.677-.021-1.39-.044-2.079-.036zm43.658 38.927c4.928.029 10.063.77 14.016 3.908 8.402 7.227 6.657 22.921-3.656 27.528-3.773 2.263-8.315 1.364-12.474 1.649-.026-11.014-.038-22.036.035-33.049.693-.02 1.375-.04 2.079-.036zm-1.899 66.026c11.109 1.043 21.617 8.441 24.983 19.285 3.545 14.624-9.48 31.265-25.019 28.998-.744-8.709.102-17.413-.036-26.131-.112-7.381-.315-14.775.072-22.152zm75.157-95.223c8.319-12.453 29.133-13.475 38.047-1.166 4.145 4.742 4.492 11.211 5.394 17.137 1.389 11.492 4.055 22.796 5.12 34.332 1.597-1.414 3.015-3.047 4.009-4.952 6.109-11.111 12.186-22.244 18.427-33.279 3.923-5.514 9.06-11.61 16.285-12.201 9.623-1.055 19.299 2.958 25.752 10.088 3.827 4.795 2.627 11.473 2.181 17.134-2.339 6.478-6.395 12.122-9.8 18.055-13.406 23.328-27.364 46.333-40.725 69.685-2.426 3.844-2.506 8.455-3.071 12.82-1.598 14.663-3.542 29.29-5.086 43.957-1.689 11.751-13.429 20.762-25.229 19.247-9.083-.762-17.359-7.674-19.302-16.634-1.634-7.97.479-15.988 1.342-23.905 1.172-10.498 2.634-20.959 3.992-31.433.324-5.653 1.139-11.49-.556-17.009-6.922-26.542-13.489-53.182-20.387-79.724-.888-7.453-1.531-15.977 3.607-22.152z" fill="#fff"/></svg>

<?xml version="1.0" encoding="utf-8"?>
<svg version="1.0" xmlns="http://www.w3.org/2000/svg">
  <path d="M 365.088 0.013 C 355.328 0.132 345.666 1.15 336.735 5.461 C 326.91 10.5 323.478 22.291 323.329 32.596 C 307.1 22.132 288.509 13.64 268.809 14.207 C 251.555 15.784 234.367 17.911 217.121 19.584 C 208.075 20.099 199.166 24.492 193.5 31.592 C 189.061 37.115 188.682 44.427 187.119 51.056 C 179.854 47.67 172.383 43.907 164.179 43.815 C 157.173 43.24 149.775 45.027 144.572 49.944 C 137.327 56.028 135.702 66.354 136.722 75.287 C 138.446 93.679 147.074 110.363 151.561 128.086 C 157.557 150.134 164.5 171.947 169.878 194.147 C 152.358 175.376 135.292 156.164 117.831 137.334 C 116.808 135.926 114.921 134.47 115.573 132.495 C 118.746 118.062 122.243 103.691 125.466 89.266 C 128.661 76.284 131.484 62.745 129.194 49.371 C 128.529 44.066 126.707 38.635 122.635 34.961 C 113.527 25.86 99.536 23.732 87.292 26.036 C 78.97 28.336 71.982 35.204 69.549 43.492 C 67.239 52.745 66.978 62.5 63.778 71.523 C 60.598 64.939 58.358 57.843 54.279 51.737 C 48.428 45.018 39.682 40.764 30.765 40.446 C 22.723 40.466 14.559 43.346 8.505 48.69 C 1.166 55.946 -1.858 67.429 1.157 77.33 C 16.814 133.964 32.579 190.564 48.114 247.233 C 51.334 255.922 57.043 265.156 66.645 267.557 C 76.107 269.834 86.493 268.736 95.214 264.367 C 104.426 259.691 108.641 248.464 107.006 238.595 C 105.317 226.878 100.738 215.805 98.224 204.256 C 105.957 211.298 112.858 219.213 120.233 226.623 C 127.034 233.634 132.717 242.034 141.31 247.054 C 151.282 253.049 164.368 251.578 174.036 245.692 C 181.421 241.353 185.406 233.338 186.582 225.081 C 197.075 232.911 212.43 233.585 223.322 226.193 C 228.738 222.858 231.439 216.804 233.108 210.923 C 238.928 213.081 243.638 218.155 250.134 218.343 C 260.598 219.032 271.33 214.325 278.487 206.801 C 285.982 195.363 281.26 181.012 282.107 168.268 C 288.724 176.877 291.962 187.449 298.166 196.298 C 305.09 205.615 315.569 213.372 327.523 213.862 C 339.475 214.714 351.83 207.52 356.055 196.119 C 363.796 202.24 373.53 205.373 383.369 205.295 C 395.861 205.512 408.351 204.517 420.826 203.969 C 434.583 203.585 448.345 199.365 459.718 191.567 C 480.589 176.411 488.023 146.55 479.217 122.745 C 474.103 113.217 466.879 105.003 460.076 96.65 C 466.517 90.604 470.186 82.564 474.808 75.215 C 479.898 91.805 483.147 108.88 488.178 125.469 C 486.547 147.716 480.693 169.701 482.156 192.14 C 482.987 199.137 487.183 205.595 493.448 208.915 C 502.217 214.549 513.493 215.066 523.234 211.926 C 531.702 208.974 537.086 200.998 540.01 192.893 C 547.407 173.481 544.757 152.006 551.086 132.387 C 557.807 118.094 567.323 105.274 574.385 91.13 C 581.935 77.275 590.105 63.746 597.684 49.909 C 603.065 39.898 598.411 27.392 590.479 20.193 C 584.91 13.819 576.385 11.224 568.219 10.444 C 557.445 9.754 546.675 15.654 541.121 24.853 C 537.362 31.15 534.758 38.172 530.117 43.923 C 527.815 32.403 525.467 20.236 518.288 10.623 C 509.537 1.244 494.837 -0.48 482.945 2.773 C 473.373 5.24 468.71 14.722 464.055 22.523 C 457.665 17.083 451.231 11.477 443.408 8.185 C 426.002 0.353 406.443 0.983 387.777 0.264 C 380.333 0.377 372.68 -0.08 365.088 0.013 Z M 409.213 51.342 C 413.034 53.575 416.237 57.535 416.059 62.167 C 416.08 66.556 412.905 69.989 409.786 72.67 C 409.349 65.567 408.827 58.461 409.213 51.342 Z M 334.62 54.425 C 338.699 56.216 343.386 57.529 346.413 60.985 C 346.747 93.189 346.823 125.45 346.341 157.658 C 337.801 145.521 331.097 132.129 323.257 119.519 C 332.32 106.583 338.171 91.075 337.918 75.143 C 337.774 68.102 335.952 61.297 334.62 54.425 Z M 200.095 72.67 C 204.931 74.454 209.962 75.744 215.114 76.147 C 216.148 97.404 217.468 118.679 218.017 139.95 C 211.779 117.605 206.127 95.079 200.095 72.67 Z M 275.906 74.641 C 279.216 77.966 278.859 83.644 276.229 87.259 C 275.653 83.072 275.561 78.851 275.906 74.641 Z M 409.213 117.404 C 415.695 121.011 421.401 127.687 421.149 135.47 C 420.558 143.171 415.224 149.334 409.643 154.181 C 409.755 141.917 408.688 129.663 409.213 117.404 Z" id="blue" style="fill-rule: nonzero; stroke: none; fill: rgb(20, 20, 20);"/>
  <path d="M 158.909 49.99 C 166.81 47.323 176.116 50.065 181.279 56.607 C 185.711 62.259 188.371 69.068 190.382 75.902 C 199.884 111.58 210.269 147.016 220.185 182.581 C 222.78 191.438 225.753 201.237 221.985 210.217 C 218.146 220.422 205.714 224.452 195.709 222.525 C 186.51 221.022 179.074 213.349 176.632 204.528 C 165.516 164.478 154.739 124.334 143.556 84.301 C 141.641 78.329 140.979 71.921 142.047 65.722 C 144.223 57.932 150.77 51.296 158.909 49.99 Z M 87.83 31.992 C 97.195 29.828 107.88 31.473 115.19 38.065 C 117.754 40.8 119.387 44.485 119.28 48.273 C 119.373 54.371 119.548 60.542 118.386 66.561 C 113.166 88.905 109.739 111.63 104.677 134.004 C 126.398 157.871 148.773 181.169 170.384 205.129 C 178.899 215.713 174.523 232.516 163.29 239.27 C 154.574 244.241 142.799 242.505 135.586 235.648 C 131.485 231.614 128.021 226.981 123.851 223.012 C 109.721 209.095 96.535 194.264 82.589 180.174 C 86.708 193.727 89.808 207.569 94.078 221.081 C 96.616 229.235 99.357 237.901 97.443 246.488 C 89.931 257.703 73.029 262.548 61.12 255.63 C 54.794 251.863 52.041 244.632 50.517 237.795 C 36.797 186.779 23.293 135.708 9.618 84.681 C 7.398 75.705 4.812 65.511 9.585 56.894 C 13.578 50.128 21.237 44.93 29.331 45.63 C 36.752 45.147 42.968 50.385 47.106 56.012 C 51.069 62.447 52.429 70.019 54.748 77.118 C 57.637 86.117 59.494 95.395 61.781 104.55 C 62.125 104.603 62.811 104.706 63.154 104.758 C 66.453 85.7 70.246 66.718 73.725 47.688 C 74.979 40.315 81.122 34.656 87.83 31.992 Z M 274.723 18.688 C 274.167 18.699 273.597 18.728 273.039 18.76 C 257.28 20.383 241.491 21.213 225.724 22.631 C 217.503 22.467 209.448 24.892 202.102 28.438 C 196.232 31.158 192.053 37.297 191.887 43.779 C 191.66 50.458 191.261 57.982 196.08 63.314 C 201.45 70.413 210.914 72.329 219.344 71.559 C 218.804 79.488 220.795 87.296 220.562 95.216 C 220.33 107.595 222.456 119.862 222.139 132.244 C 223.793 152.874 223.762 173.628 225.796 194.219 C 229.214 213.291 259.079 217.649 268.881 201.46 C 273.753 192.655 271.373 182.258 271.354 172.712 C 271.525 160.131 269.206 147.714 269.024 135.147 C 274.265 141.714 277.904 149.343 281.964 156.654 C 287.722 167.475 294.283 177.829 300.209 188.556 C 303.779 194.742 308.049 201.014 314.583 204.363 C 325.865 212.07 342.841 204.29 346.234 191.531 C 348.833 181.387 345.183 170.711 339.387 162.353 C 332.628 153.036 327.305 142.799 321.25 133.032 C 318.108 127.736 314.54 122.673 312.217 116.938 C 327.124 104.437 327.498 83.172 326.913 65.286 C 325.505 56.885 322.784 48.585 318.705 41.091 C 308.643 27.215 291.968 18.329 274.723 18.688 Z M 264.938 62.454 C 271.93 62.891 279.105 67.148 280.889 74.283 C 283.48 80.227 280.94 87.24 276.659 91.703 C 273.802 94.906 269.49 95.871 265.691 97.474 C 264.475 85.841 265.616 74.118 264.938 62.454 Z M 357.059 5.461 C 346.712 5.589 335.242 9.153 330.319 18.939 C 326.736 28.389 329.088 39.704 334.907 47.794 C 338.58 53.215 345.068 55.348 351.288 56.074 C 351.751 58.587 352.284 61.106 352.363 63.673 C 352.264 103.638 352.805 143.635 352.793 183.573 C 354.687 192.907 365.303 196.031 373.619 196.298 C 394.843 196.747 416.534 198.506 437.315 193.144 C 462.022 185.457 476.411 157.402 471.977 132.566 C 470.3 116.628 459.827 102.752 445.953 95.145 C 455.055 85.547 463.519 74.303 465.56 60.877 C 468.475 40.542 456.196 19.66 437.602 11.304 C 425.651 5.441 412.056 7.16 399.212 6.716 C 385.902 5.137 372.506 5.888 359.138 5.497 C 358.461 5.476 357.748 5.453 357.059 5.461 Z M 400.717 44.388 C 405.645 44.417 410.78 45.158 414.733 48.296 C 423.135 55.523 421.39 71.217 411.077 75.824 C 407.304 78.087 402.762 77.188 398.603 77.473 C 398.577 66.459 398.565 55.437 398.638 44.424 C 399.331 44.404 400.013 44.384 400.717 44.388 Z M 398.818 110.414 C 409.927 111.457 420.435 118.855 423.801 129.699 C 427.346 144.323 414.321 160.964 398.782 158.697 C 398.038 149.988 398.884 141.284 398.746 132.566 C 398.634 125.185 398.431 117.791 398.818 110.414 Z M 473.975 15.191 C 482.294 2.738 503.108 1.716 512.022 14.025 C 516.167 18.767 516.514 25.236 517.416 31.162 C 518.805 42.654 521.471 53.958 522.536 65.494 C 524.133 64.08 525.551 62.447 526.545 60.542 C 532.654 49.431 538.731 38.298 544.972 27.263 C 548.895 21.749 554.032 15.653 561.257 15.062 C 570.88 14.007 580.556 18.02 587.009 25.15 C 590.836 29.945 589.636 36.623 589.19 42.284 C 586.851 48.762 582.795 54.406 579.39 60.339 C 565.984 83.667 552.026 106.672 538.665 130.024 C 536.239 133.868 536.159 138.479 535.594 142.844 C 533.996 157.507 532.052 172.134 530.508 186.801 C 528.819 198.552 517.079 207.563 505.279 206.048 C 496.196 205.286 487.92 198.374 485.977 189.414 C 484.343 181.444 486.456 173.426 487.319 165.509 C 488.491 155.011 489.953 144.55 491.311 134.076 C 491.635 128.423 492.45 122.586 490.755 117.067 C 483.833 90.525 477.266 63.885 470.368 37.343 C 469.48 29.89 468.837 21.366 473.975 15.191 Z" id="KIRBY" style="fill-opacity: 1; fill-rule: nonzero; stroke: none; fill: rgb(255, 255, 255);"/>
</svg>
